**kern	**silbe	**kern	**silbe	**harmony	**phrase	**leadinstrument	**rhyme	**timestamp	**harte
*ICvox	*	*ICvox	*	*M4/4	*	*	*	*	*M4/4
*VRlead	*	*VRharmonize*VRbacking*VRresponse	*	*	*	*	*	*	*
*Hstimme	*	*Nstimme	*	*	*	*	*	*	*
*B:	*	*B:	*	*B:	*	*	*	*	*B:
*M4/4	*	*M4/4	*	*	*	*	*	*	*
*clefC3	*	*clefC3	*	*	*	*	*	*	*
r;	.	r;	.	1r;	.	r	.	0	N.C.
=1	=1	=1	=1	=1	=1	=1	=1	=1	=1
*>Letter>A	*>Letter>A	*>Letter>A	*>Letter>A	*>Letter>A	*>Letter>A	*>Letter>A	*>Letter>A	*>Letter>A	*>Letter>A
*>Label>Intro	*>Label>Intro	*>Label>Intro	*>Label>Intro	*>Label>Intro	*>Label>Intro	*>Label>Intro	*>Label>Intro	*>Label>Intro	*>Label>Intro
1r	.	1r	.	1BM	newline	r	.	0.8	B:maj
=2	=2	=2	=2	=2	=2	=2	=2	=2	=2
1r	.	1r	.	1BM	.	r	.	2.394	B:maj
=3	=3	=3	=3	=3	=3	=3	=3	=3	=3
1r	.	1r	.	1BM	.	r	.	3.988	B:sus4
=4	=4	=4	=4	=4	=4	=4	=4	=4	=4
1r	.	1r	.	1BM	.	r	.	5.581	B:sus4
=5	=5	=5	=5	=5	=5	=5	=5	=5	=5
1r	.	1r	.	1BM	newline	r	.	7.175	B:maj/5
=6	=6	=6	=6	=6	=6	=6	=6	=6	=6
1r	.	1r	.	1BM	.	r	.	8.787	B:maj/5
=7	=7	=7	=7	=7	=7	=7	=7	=7	=7
1r	.	1r	.	1F#M	.	r	.	10.399	F#:sus4(b7)
=8	=8	=8	=8	=8	=8	=8	=8	=8	=8
1r	.	1r	.	1F#M	.	r	.	12.011	F#:sus4(b7)
=9	=9	=9	=9	=9	=9	=9	=9	=9	=9
*>Letter>B	*>Letter>B	*>Letter>B	*>Letter>B	*>Letter>B	*>Letter>B	*>Letter>B	*>Letter>B	*>Letter>B	*>Letter>B
*>Label>Verse	*>Label>Verse	*>Label>Verse	*>Label>Verse	*>Label>Verse	*>Label>Verse	*>Label>Verse	*>Label>Verse	*>Label>Verse	*>Label>Verse
2r	.	1r	.	1BM	newline	voice	.	13.623	B:maj
6d#	Sweet	.	.	.	.	.	.	.	.
6f#	tal-	.	.	.	.	.	.	.	.
6g#	-kin'	.	.	.	.	.	.	.	.
=10	=10	=10	=10	=10	=10	=10	=10	=10	=10
6g#	guy	1r	.	1BM	.	voice	A	15.242	B:maj
[3f#	_	.	.	.	.	.	.	.	.
2f#]	_	.	.	.	.	.	.	.	.
=11	=11	=11	=11	=11	=11	=11	=11	=11	=11
6r	.	1r	.	1F#M	.	voice	.	16.862	F#:maj/3
6c#	tal-	.	.	.	.	.	.	.	.
6c#	-kin'	.	.	.	.	.	.	.	.
6c#	sweet	.	.	.	.	.	.	.	.
6f#	kin-	.	.	.	.	.	.	.	.
6g#	-da	.	.	.	.	.	.	.	.
=12	=12	=12	=12	=12	=12	=12	=12	=12	=12
6g#	lies!	1r	.	1F#M	.	voice	A	18.481	F#:maj/3
[3f#	_	.	.	.	.	.	.	.	.
2f#]	_	.	.	.	.	.	.	.	.
=13	=13	=13	=13	=13	=13	=13	=13	=13	=13
4r	.	1r	.	1D#d	newline	voice	.	20.101	D#:dim/b5
4d#	Don't	.	.	.	.	.	.	.	.
4f#	you	.	.	.	.	.	.	.	.
4g#	be-	.	.	.	.	.	.	.	.
=14	=14	=14	=14	=14	=14	=14	=14	=14	=14
4.a	-lieve	1r	.	1D#d	.	voice	.	21.724	D#:dim/b5
8g#	in	.	.	.	.	.	.	.	.
6f#	him,	.	.	.	.	.	.	.	.
6e	if	.	.	.	.	.	.	.	.
6d#	you	.	.	.	.	.	.	.	.
=15	=15	=15	=15	=15	=15	=15	=15	=15	=15
4.f#	do	1r	.	1EM	.	voice	.	23.347	E:maj/3
8r	.	.	.	.	.	.	.	.	.
6f#	he'll	.	.	.	.	.	.	.	.
6e	make	.	.	.	.	.	.	.	.
6d#	you	.	.	.	.	.	.	.	.
=16	=16	=16	=16	=16	=16	=16	=16	=16	=16
1e	cry.	1r	.	1EM	.	voice	A	24.97	E:maj/3
=17	=17	=17	=17	=17	=17	=17	=17	=17	=17
4r	.	1r	.	1Em	newline	voice	.	26.594	E:min/b3
4c#	He'll	.	.	.	.	.	.	.	.
4e	send	.	.	.	.	.	.	.	.
4f#	you	.	.	.	.	.	.	.	.
=18	=18	=18	=18	=18	=18	=18	=18	=18	=18
8g	flo-	1r	.	1Em	.	voice	.	28.196	E:min/b3
4f#	-wers	.	.	.	.	.	.	.	.
8r	.	.	.	.	.	.	.	.	.
8r	.	.	.	.	.	.	.	.	.
8e	and	.	.	.	.	.	.	.	.
8e	paint	.	.	.	.	.	.	.	.
8c#	the	.	.	.	.	.	.	.	.
=19	=19	=19	=19	=19	=19	=19	=19	=19	=19
4e	town	1r	.	1BM	.	voice	.	29.798	B:maj/5
8d#	with	.	.	.	.	.	.	.	.
8e	a-	.	.	.	.	.	.	.	.
8d#	-no-	.	.	.	.	.	.	.	.
4B	-ther	.	.	.	.	.	.	.	.
[8F#	girl	.	.	.	.	.	.	.	.
=20	=20	=20	=20	=20	=20	=20	=20	=20	=20
2F#]	_	1r	.	1BM	.	voice	.	31.401	B:maj/5
4r	.	.	.	.	.	.	.	.	.
8f#	He's	.	.	.	.	.	.	.	.
8d#	a	.	.	.	.	.	.	.	.
=21	=21	=21	=21	=21	=21	=21	=21	=21	=21
4f#	sweet	1r	.	1F#Mm	newline	voice	.	33.003	F#:7
8f#	tal-	.	.	.	.	.	.	.	.
8f#	-kin'	.	.	.	.	.	.	.	.
8g#	guy	.	.	.	.	.	A	.	.
[4.f#	_	.	.	.	.	.	.	.	.
=22	=22	=22	=22	=22	=22	=22	=22	=22	=22
2f#]	_	4f#	Sweet	1F#Mm	.	voice	.	34.621	F#:7
.	.	8f#	tal-	.	.	.	.	.	.
.	.	8f#	-kin'	.	.	.	.	.	.
4r	.	8g#	guy	.	.	.	A	.	.
.	.	[4.f#	_	.	.	.	.	.	.
8f#	but	.	.	.	.	.	.	.	.
8d#	he's	.	.	.	.	.	.	.	.
=23	=23	=23	=23	=23	=23	=23	=23	=23	=23
4f#	my	2f#]	_	1F#Mm	.	voice	.	36.239	F#:7
8f#	kin-	.	.	.	.	.	.	.	.
8f#	-da	.	.	.	.	.	.	.	.
8g#	guy	2r	.	.	.	.	A	.	.
[4.f#	_	.	.	.	.	.	.	.	.
=24	=24	=24	=24	=24	=24	=24	=24	=24	=24
2f#]	_	4f#	Sweet	1F#Mm	.	voice	.	37.856	F#:7
.	.	8f#	tal-	.	.	.	.	.	.
.	.	8f#	-kin'	.	.	.	.	.	.
2r	.	8g#	guy	.	.	.	A	.	.
.	.	[4.f#	_	.	.	.	.	.	.
=25	=25	=25	=25	=25	=25	=25	=25	=25	=25
*>Letter>B	*>Letter>B	*>Letter>B	*>Letter>B	*>Letter>B	*>Letter>B	*>Letter>B	*>Letter>B	*>Letter>B	*>Letter>B
*>Label>Verse	*>Label>Verse	*>Label>Verse	*>Label>Verse	*>Label>Verse	*>Label>Verse	*>Label>Verse	*>Label>Verse	*>Label>Verse	*>Label>Verse
2r	.	4f#]	_	1BM	newline	voice	.	39.474	B:maj
.	.	4r	.	.	.	.	.	.	.
8d#	Swee-	2r	.	.	.	.	.	.	.
8f#	-ter	.	.	.	.	.	.	.	.
8g#	than	.	.	.	.	.	.	.	.
[8f#	su	.	.	.	.	.	.	.	.
=26	=26	=26	=26	=26	=26	=26	=26	=26	=26
8f#]	_	2r	.	1BM	.	voice	.	41.084	B:maj
[4.g#	gar	.	.	.	.	.	.	.	.
4g#]	_	2b	Ooh!	.	.	.	.	.	.
4r	.	.	.	.	.	.	.	.	.
=27	=27	=27	=27	=27	=27	=27	=27	=27	=27
2r	.	1r	.	1F#M	.	voice	.	42.695	F#:maj/3
8c#	Kis-	.	.	.	.	.	.	.	.
8f#	-ses	.	.	.	.	.	.	.	.
8g#	like	.	.	.	.	.	.	.	.
8g#	wine	.	.	.	.	.	A	.	.
=28	=28	=28	=28	=28	=28	=28	=28	=28	=28
1f#	_	4r	.	1F#M	.	voice	.	44.306	F#:maj/3
.	.	8b#q	_	.	.	.	.	.	.
.	.	4cc#	Oh!	.	.	.	.	.	.
.	.	8a#	He's	.	.	.	.	.	.
.	.	4f#	so	.	.	.	.	.	.
.	.	8f#q	_	.	.	.	.	.	.
.	.	[8d#	fine	.	.	.	A	.	.
=29	=29	=29	=29	=29	=29	=29	=29	=29	=29
4r	.	1d#_	_	1D#d	newline	voice	.	45.916	D#:dim/b5
4d#	Don't	.	.	.	.	.	.	.	.
4f#	let	.	.	.	.	.	.	.	.
4g#	him	.	.	.	.	.	.	.	.
=30	=30	=30	=30	=30	=30	=30	=30	=30	=30
6a	un-	1d#]	.	1D#d	.	voice	.	47.525	D#:dim/b5
6g#	-der	.	.	.	.	.	.	.	.
6a	your	.	.	.	.	.	.	.	.
6g#	skin	.	.	.	.	.	B	.	.
3f#	_	.	.	.	.	.	.	.	.
=31	=31	=31	=31	=31	=31	=31	=31	=31	=31
4r	.	1r	.	1EM	.	voice	.	49.134	E:maj/3
4e	cuz	.	.	.	.	.	.	.	.
6f#	you'll	.	.	.	.	.	.	.	.
6e	ne-	.	.	.	.	.	.	.	.
6d#	-ver	.	.	.	.	.	.	.	.
=32	=32	=32	=32	=32	=32	=32	=32	=32	=32
1e	win.	4r	.	1EM	.	voice	B	50.743	E:maj/3
.	.	8b	No,	.	.	.	.	.	.
.	.	8b	you	.	.	.	.	.	.
.	.	8g#	ne-	.	.	.	.	.	.
.	.	4e	-ver	.	.	.	.	.	.
.	.	[8c#	will	.	.	.	B	.	.
=33	=33	=33	=33	=33	=33	=33	=33	=33	=33
4r	.	1c#_	_	1Em	newline	voice	.	52.352	E:min/b3
4c#	Don't	.	.	.	.	.	.	.	.
4e	give	.	.	.	.	.	.	.	.
4f#	him	.	.	.	.	.	.	.	.
=34	=34	=34	=34	=34	=34	=34	=34	=34	=34
4.g	love	2c#_	_	1Em	.	voice	.	53.962	E:min/b3
8g	to-	.	.	.	.	.	.	.	.
4f#	-day	8c#]	_	.	.	.	C	.	.
.	.	8r	.	.	.	.	.	.	.
8r	.	4r	.	.	.	.	.	.	.
8e	to-	.	.	.	.	.	.	.	.
=35	=35	=35	=35	=35	=35	=35	=35	=35	=35
6e	-mor-	1r	.	1BM	.	voice	.	55.573	B:maj/5
6d#	-row	.	.	.	.	.	.	.	.
6e	he's	.	.	.	.	.	.	.	.
4d#	on	.	.	.	.	.	.	.	.
4B	his	.	.	.	.	.	.	.	.
=36	=36	=36	=36	=36	=36	=36	=36	=36	=36
[2F#	way	1r	.	1BM	.	voice	C	57.183	B:maj/5
8F#]	_	.	.	.	.	.	.	.	.
8r	.	.	.	.	.	.	.	.	.
8f#	He's	.	.	.	.	.	.	.	.
8d#	a	.	.	.	.	.	.	.	.
=37	=37	=37	=37	=37	=37	=37	=37	=37	=37
4f#	sweet	1r	.	1F#Mm	newline	voice	.	58.794	F#:7
8f#	tal-	.	.	.	.	.	.	.	.
8f#	-kin'	.	.	.	.	.	.	.	.
8g#	guy	.	.	.	.	.	A	.	.
[4.f#	_	.	.	.	.	.	.	.	.
=38	=38	=38	=38	=38	=38	=38	=38	=38	=38
2f#]	_	4f#	Sweet	1F#Mm	.	voice	.	60.393	F#:7
.	.	8f#	tal-	.	.	.	.	.	.
.	.	8f#	-kin'	.	.	.	.	.	.
4r	.	8g#	guy	.	.	.	A	.	.
.	.	[4.f#	_	.	.	.	.	.	.
8f#	but	.	.	.	.	.	.	.	.
8d#	he's	.	.	.	.	.	.	.	.
=39	=39	=39	=39	=39	=39	=39	=39	=39	=39
4f#	my	2f#]	_	1F#Mm	.	voice	.	61.992	F#:7
8f#	kin-	.	.	.	.	.	.	.	.
8f#	-da	.	.	.	.	.	.	.	.
8g#	guy	2r	.	.	.	.	A	.	.
[4.f#	_	.	.	.	.	.	.	.	.
=40	=40	=40	=40	=40	=40	=40	=40	=40	=40
1f#]	.	4f#	Sweet	1F#Mm	.	voice	.	63.592	F#:7
.	.	8f#	tal-	.	.	.	.	.	.
.	.	8f#	-kin'	.	.	.	.	.	.
.	.	8g#	guy	.	.	.	A	.	.
.	.	4.f#	_	.	.	.	.	.	.
=41	=41	=41	=41	=41	=41	=41	=41	=41	=41
*>Letter>C	*>Letter>C	*>Letter>C	*>Letter>C	*>Letter>C	*>Letter>C	*>Letter>C	*>Letter>C	*>Letter>C	*>Letter>C
*>Label>Transition	*>Label>Transition	*>Label>Transition	*>Label>Transition	*>Label>Transition	*>Label>Transition	*>Label>Transition	*>Label>Transition	*>Label>Transition	*>Label>Transition
4r	.	4r	.	1DM	newline	voice	.	65.191	D:maj
4a	Why	4f# 4a	Why	.	.	.	.	.	.
4g	do	4f# 4a	do	.	.	.	.	.	.
4f#	I	4f# 4a	I	.	.	.	.	.	.
=42	=42	=42	=42	=42	=42	=42	=42	=42	=42
4f#	love	4g 4b	love	1GM	.	voice	.	66.81	G:maj
4e	him	4g 4b	him	.	.	.	.	.	.
4d	like	4g 4b	like	.	.	.	.	.	.
4e	I	4g 4b	I	.	.	.	.	.	.
=43	=43	=43	=43	=43	=43	=43	=43	=43	=43
[2g	do?	1e 1g 1cc	do?	1CM	.	voice	.	68.429	C:maj
8g]	_	.	.	.	.	.	.	.	.
8a	_	.	.	.	.	.	.	.	.
4g	_	.	.	.	.	.	.	.	.
=44	=44	=44	=44	=44	=44	=44	=44	=44	=44
1f#	_	1c# 1f# 1a#	_	1F#Mm	.	voice	.	70.048	F#:7
=45	=45	=45	=45	=45	=45	=45	=45	=45	=45
*>Letter>B	*>Letter>B	*>Letter>B	*>Letter>B	*>Letter>B	*>Letter>B	*>Letter>B	*>Letter>B	*>Letter>B	*>Letter>B
*>Label>Instrumental	*>Label>Instrumental	*>Label>Instrumental	*>Label>Instrumental	*>Label>Instrumental	*>Label>Instrumental	*>Label>Instrumental	*>Label>Instrumental	*>Label>Instrumental	*>Label>Instrumental
1r	.	1r	.	1BM	newline	voice cello oboe	.	71.667	B:maj
=46	=46	=46	=46	=46	=46	=46	=46	=46	=46
1r	.	1r	.	1BM	.	voice cello oboe	.	73.276	B:maj
=47	=47	=47	=47	=47	=47	=47	=47	=47	=47
1r	.	1r	.	1F#M	.	voice cello oboe	.	74.885	F#:maj/3
=48	=48	=48	=48	=48	=48	=48	=48	=48	=48
1r	.	1r	.	1F#M	.	voice cello oboe	.	76.494	F#:maj/3
=49	=49	=49	=49	=49	=49	=49	=49	=49	=49
1r	.	1r	.	1D#d	newline	voice cello oboe	.	78.103	D#:dim/b5
=50	=50	=50	=50	=50	=50	=50	=50	=50	=50
1r	.	1r	.	1D#d	.	voice cello oboe	.	79.73	D#:dim/b5
=51	=51	=51	=51	=51	=51	=51	=51	=51	=51
1r	.	1r	.	1EM	.	voice cello oboe	.	81.357	E:maj/3
=52	=52	=52	=52	=52	=52	=52	=52	=52	=52
1r	.	1r	.	1EM	.	voice cello oboe	.	82.983	E:maj/3
=53	=53	=53	=53	=53	=53	=53	=53	=53	=53
[1g	Whoo	[1e [1g [1b	Whoo	1Em	newline	voice	.	84.61	E:min/b3
=54	=54	=54	=54	=54	=54	=54	=54	=54	=54
2g]	_	2.e_ 2.g_ 2.b]	_	1Em	.	voice	.	86.23	E:min/b3
4f#	_	.	.	.	.	.	.	.	.
4e	.	4e] 4g] 4cc#	_	.	.	.	.	.	.
=55	=55	=55	=55	=55	=55	=55	=55	=55	=55
1r	.	[1d# [1f# [1b	_	1BM	.	voice	.	87.849	B:maj/5
=56	=56	=56	=56	=56	=56	=56	=56	=56	=56
2r	.	2d#_ 2f#_ 2b_	_	1BM	.	voice	.	89.469	B:maj/5
4r	.	8d#] 8f#] 8b]	_	.	.	.	.	.	.
.	.	8r	.	.	.	.	.	.	.
8f#	He's	4r	.	.	.	.	.	.	.
8d#	a	.	.	.	.	.	.	.	.
=57	=57	=57	=57	=57	=57	=57	=57	=57	=57
4f#	sweet	2r	.	1F#Mm	newline	cello oboe	.	91.089	F#:7
8f#	tal-	.	.	.	.	.	.	.	.
8f#	-kin',	.	.	.	.	.	.	.	.
2r	.	4g#	sweet	.	.	.	.	.	.
.	.	8f#	tal-	.	.	.	.	.	.
.	.	8f#	-kin',	.	.	.	.	.	.
=58	=58	=58	=58	=58	=58	=58	=58	=58	=58
4f#	sweet	2r	.	1F#Mm	.	cello oboe	.	92.691	F#:7
8f#	tal-	.	.	.	.	.	.	.	.
8f#	-kin',	.	.	.	.	.	.	.	.
2r	.	4g#	sweet	.	.	.	.	.	.
.	.	8f#	tal-	.	.	.	.	.	.
.	.	8f#	-kin',	.	.	.	.	.	.
=59	=59	=59	=59	=59	=59	=59	=59	=59	=59
[1a#	guy	[1e [1f#	guy	1F#Mm	.	cello oboe	A	94.293	F#:7
=60	=60	=60	=60	=60	=60	=60	=60	=60	=60
2.a#_	_	2.e_ 2.f#_	_	1F#Mm	.	cello oboe	.	95.895	F#:7
8a#]	_	8e] 8f#]	_	.	.	.	.	.	.
8r	.	8r	.	.	.	.	.	.	.
=61	=61	=61	=61	=61	=61	=61	=61	=61	=61
*>Letter>B	*>Letter>B	*>Letter>B	*>Letter>B	*>Letter>B	*>Letter>B	*>Letter>B	*>Letter>B	*>Letter>B	*>Letter>B
*>Label>Chorus	*>Label>Chorus	*>Label>Chorus	*>Label>Chorus	*>Label>Chorus	*>Label>Chorus	*>Label>Chorus	*>Label>Chorus	*>Label>Chorus	*>Label>Chorus
8f#	Stay	[1B	Stay	1BM	newline	cello oboe	.	97.498	B:maj
8e	a-	.	.	.	.	.	.	.	.
8d#	-way	.	.	.	.	.	.	.	.
8c#	from	.	.	.	.	.	.	.	.
4B	him,	.	.	.	.	.	B	.	.
8f#	stay	.	.	.	.	.	.	.	.
8e	a-	.	.	.	.	.	.	.	.
=62	=62	=62	=62	=62	=62	=62	=62	=62	=62
8d#	-way	4B]	_	1BM	.	cello oboe	.	99.12	B:maj
8c#	from	.	.	.	.	.	.	.	.
4B	him,	4B	a-	.	.	.	B	.	.
8f#	don't	4c#	-way	.	.	.	.	.	.
8e	be-	.	.	.	.	.	.	.	.
8d#	-lieve	4d#	from	.	.	.	.	.	.
8c#	his	.	.	.	.	.	.	.	.
=63	=63	=63	=63	=63	=63	=63	=63	=63	=63
4f#	ly-	[1A#	him	1F#M	.	cello oboe	(A	100.743	F#:maj/3
[2.c#	-ing	.	.	.	.	.	a)	.	.
=64	=64	=64	=64	=64	=64	=64	=64	=64	=64
2c#_	_	4A#]	_	1F#M	.	cello oboe	.	102.365	F#:maj/3
.	.	4r	.	.	.	.	.	.	.
8c#]	_	4d#	No,	.	.	.	.	.	.
8r	.	.	.	.	.	.	.	.	.
4r	.	4f#	no,	.	.	.	.	.	.
=65	=65	=65	=65	=65	=65	=65	=65	=65	=65
8f#	No,	1A	no	1D#d	newline	cello oboe	.	103.987	D#:dim/b5
8e	you'll	.	.	.	.	.	.	.	.
8d#	ne-	.	.	.	.	.	.	.	.
8c#	-ver	.	.	.	.	.	.	.	.
4B#	win,	.	.	.	.	.	B	.	.
8f#	no,	.	.	.	.	.	.	.	.
8e	you'll	.	.	.	.	.	.	.	.
=66	=66	=66	=66	=66	=66	=66	=66	=66	=66
8d#	ne-	4r	.	1D#d	.	cello oboe	.	105.607	D#:dim/b5
8c#	-ver	.	.	.	.	.	.	.	.
4B#	win,	4B#	you'll	.	.	.	B	.	.
8f#	lo-	4d#	ne-	.	.	.	.	.	.
8e	-ser's	.	.	.	.	.	.	.	.
8d#	in	4f#	-ver	.	.	.	B	.	.
8c#	for	.	.	.	.	.	.	.	.
=67	=67	=67	=67	=67	=67	=67	=67	=67	=67
4e	cry-	[1e	win	1EM	.	cello oboe	(A	107.226	E:maj/3
[2.B	-ing	.	.	.	.	.	a)	.	.
=68	=68	=68	=68	=68	=68	=68	=68	=68	=68
2B_	_	2.e_	_	1EM	.	cello oboe	.	108.845	E:maj/3
8B]	_	.	.	.	.	.	.	.	.
8r	.	.	.	.	.	.	.	.	.
4r	.	8e]	_	.	.	.	.	.	.
.	.	8r	.	.	.	.	.	.	.
=69	=69	=69	=69	=69	=69	=69	=69	=69	=69
4r	.	[1e [1g [1b	Whoo	1Em	newline	cello oboe	.	110.464	E:min/b3
4c#	Don't	.	.	.	.	.	.	.	.
4e	give	.	.	.	.	.	.	.	.
4f#	him	.	.	.	.	.	.	.	.
=70	=70	=70	=70	=70	=70	=70	=70	=70	=70
4.g	love	2.e] 2.g] 2.b]	_	1Em	.	cello oboe	.	112.086	E:min/b3
8g	to-	.	.	.	.	.	.	.	.
4f#	-day,	.	.	.	.	.	C	.	.
8r	.	4r	.	.	.	.	.	.	.
8e	to-	.	.	.	.	.	.	.	.
=71	=71	=71	=71	=71	=71	=71	=71	=71	=71
6e	-mor-	1r	.	1BM	.	cello oboe	.	113.708	B:maj/5
6d#	-row	.	.	.	.	.	.	.	.
6e	he's	.	.	.	.	.	.	.	.
4d#	on	.	.	.	.	.	.	.	.
4B	his	.	.	.	.	.	.	.	.
=72	=72	=72	=72	=72	=72	=72	=72	=72	=72
[2F#	way	1r	.	1BM	.	cello oboe	C	115.33	B:maj/5
8F#]	_	.	.	.	.	.	.	.	.
8r	.	.	.	.	.	.	.	.	.
8f#	He's	.	.	.	.	.	.	.	.
8d#	a	.	.	.	.	.	.	.	.
=73	=73	=73	=73	=73	=73	=73	=73	=73	=73
4f#	sweet	2r	.	1F#Mm	newline	cello oboe	.	116.952	F#:7
8f#	tal-	.	.	.	.	.	.	.	.
8f#	-kin',	.	.	.	.	.	.	.	.
2r	.	4g#	sweet	.	.	.	.	.	.
.	.	8f#	tal-	.	.	.	.	.	.
.	.	8f#	-kin',	.	.	.	.	.	.
=74	=74	=74	=74	=74	=74	=74	=74	=74	=74
4f#	sweet	2r	.	1F#Mm	.	cello oboe	.	118.54	F#:7
8f#	tal-	.	.	.	.	.	.	.	.
8f#	-kin',	.	.	.	.	.	.	.	.
2r	.	4g#	sweet	.	.	.	.	.	.
.	.	8e 8g#	tal-	.	.	.	.	.	.
.	.	8e 8g#	-kin',	.	.	.	.	.	.
=75	=75	=75	=75	=75	=75	=75	=75	=75	=75
4f#	sweet	2r	.	1F#Mm	.	cello oboe	.	120.127	F#:7
8f#	tal-	.	.	.	.	.	.	.	.
8f#	-kin',	.	.	.	.	.	.	.	.
2r	.	4e 4g# 4b	sweet	.	.	.	.	.	.
.	.	8e 8g# 8b	tal-	.	.	.	.	.	.
.	.	8e 8g# 8b	-kin',	.	.	.	.	.	.
=76	=76	=76	=76	=76	=76	=76	=76	=76	=76
4f#	sweet	2r	.	1F#Mm	.	cello oboe	.	121.715	F#:7
8f#	tal-	.	.	.	.	.	.	.	.
8f#	-kin',	.	.	.	.	.	.	.	.
2r	.	4e 4g# 4b	sweet	.	.	.	.	.	.
.	.	8e 8g# 8b	tal-	.	.	.	.	.	.
.	.	8e 8g# 8b	-kin',	.	.	.	.	.	.
=77	=77	=77	=77	=77	=77	=77	=77	=77	=77
[1a#	guy	[1f# [1a# [1cc#	guy	1F#Mm	.	cello oboe	A	123.303	F#:7
=78	=78	=78	=78	=78	=78	=78	=78	=78	=78
2.a#_	_	2.f#_ 2.a#_ 2.cc#_	_	1F#Mm	.	cello oboe	.	124.891	F#:7
8a#]	_	8f#] 8a#] 8cc#]	_	.	.	.	.	.	.
8r	.	8r	.	.	.	.	.	.	.
=79	=79	=79	=79	=79	=79	=79	=79	=79	=79
*>Letter>B	*>Letter>B	*>Letter>B	*>Letter>B	*>Letter>B	*>Letter>B	*>Letter>B	*>Letter>B	*>Letter>B	*>Letter>B
*>Label>Chorus	*>Label>Chorus	*>Label>Chorus	*>Label>Chorus	*>Label>Chorus	*>Label>Chorus	*>Label>Chorus	*>Label>Chorus	*>Label>Chorus	*>Label>Chorus
4r	.	[1B	Stay	1BM	newline	cello oboe	C	126.479	B:maj
4d# 4f# 4b	Sweet,	.	.	.	.	.	.	.	.
4d# 4f# 4b	sweet,	.	.	.	.	.	.	.	.
8r	.	.	.	.	.	.	.	.	.
8d# 8f# 8b	sweet	.	.	.	.	.	.	.	.
=80	=80	=80	=80	=80	=80	=80	=80	=80	=80
8r	.	4B]	_	1BM	.	cello oboe	.	128.098	B:maj
8d# 8f# 8b	tal	.	.	.	.	.	.	.	.
8r	.	4B	a-	.	.	.	.	.	.
8d# 8f# 8b	kin'	.	.	.	.	.	.	.	.
4.d# 4.f# 4.b	guy	4c#	-way	.	.	.	C	.	.
.	.	4d#	from	.	.	.	.	.	.
8r	.	.	.	.	.	.	.	.	.
=81	=81	=81	=81	=81	=81	=81	=81	=81	=81
4r	.	[1A#	him	1F#M	.	cello oboe	B	129.716	F#:maj/3
4c# 4f# 4a#	Sweet,	.	.	.	.	.	.	.	.
4c# 4f# 4a#	sweet,	.	.	.	.	.	.	.	.
8r	.	.	.	.	.	.	.	.	.
8c# 8f# 8a#	sweet	.	.	.	.	.	.	.	.
=82	=82	=82	=82	=82	=82	=82	=82	=82	=82
8r	.	4A#]	_	1F#M	.	cello oboe	.	131.335	F#:maj/3
8c# 8f# 8a#	tal	.	.	.	.	.	.	.	.
8r	.	4r	.	.	.	.	.	.	.
8c# 8f# 8a#	kin'	.	.	.	.	.	.	.	.
4.c# 4.f# 4.a#	guy	4d#	No,	.	.	.	A	.	.
.	.	4f#	no,	.	.	.	.	.	.
8r	.	.	.	.	.	.	.	.	.
=83	=83	=83	=83	=83	=83	=83	=83	=83	=83
4r	.	1A	no	1D#d	newline	cello oboe	.	132.953	D#:dim/b5
4d# 4f# 4a	Sweet,	.	.	.	.	.	.	.	.
4d# 4f# 4a	sweet,	.	.	.	.	.	.	.	.
8r	.	.	.	.	.	.	.	.	.
8d# 8f# 8a	sweet	.	.	.	.	.	.	.	.
=84	=84	=84	=84	=84	=84	=84	=84	=84	=84
8r	.	4r	.	1D#d	.	cello oboe	.	134.596	D#:dim/b5
8d# 8f# 8a	tal	.	.	.	.	.	.	.	.
8r	.	4B#	you'll	.	.	.	.	.	.
8d# 8f# 8a	kin'	.	.	.	.	.	.	.	.
4.d# 4.f# 4.a	guy	4d#	ne-	.	.	.	A	.	.
.	.	4f#	-ver	.	.	.	.	.	.
8r	.	.	.	.	.	.	.	.	.
=85	=85	=85	=85	=85	=85	=85	=85	=85	=85
4r	.	[1e	win	1EM	.	cello oboe	.	136.238	E:maj/3
4B 4e 4g#	Sweet,	.	.	.	.	.	.	.	.
4B 4e 4g#	sweet,	.	.	.	.	.	.	.	.
8r	.	.	.	.	.	.	.	.	.
8B 8e 8g#	sweet	.	.	.	.	.	.	.	.
=86	=86	=86	=86	=86	=86	=86	=86	=86	=86
8r	.	2e_	_	1EM	.	cello oboe	.	137.881	E:maj/3
8B 8e 8g#	tal	.	.	.	.	.	.	.	.
8r	.	.	.	.	.	.	.	.	.
8B 8e 8g#	kin'	.	.	.	.	.	.	.	.
4.B 4.e 4.g#	guy	8e]	_	.	.	.	A	.	.
.	.	4r	.	.	.	.	.	.	.
8r	.	8r	.	.	.	.	.	.	.
=87	=87	=87	=87	=87	=87	=87	=87	=87	=87
4r	.	[1e [1g [1b	Whoo	1Em	newline	voice	.	139.523	E:min/b3
4B 4e 4g	Sweet,	.	.	.	.	.	.	.	.
4B 4e 4g	sweet,	.	.	.	.	.	.	.	.
8r	.	.	.	.	.	.	.	.	.
8B 8e 8g	sweet	.	.	.	.	.	.	.	.
=88	=88	=88	=88	=88	=88	=88	=88	=88	=88
8r	.	2.e_ 2.g_ 2.b]	_	1Em	.	voice	.	141.038	E:min/b3
8B 8e 8g	tal	.	.	.	.	.	.	.	.
8r	.	.	.	.	.	.	.	.	.
8B 8e 8g	kin'	.	.	.	.	.	.	.	.
4.c# 4.e 4.g	guy	.	.	.	.	.	A	.	.
.	.	4e] 4g] 4cc#	_	.	.	.	.	.	.
8r	.	.	.	.	.	.	.	.	.
=89	=89	=89	=89	=89	=89	=89	=89	=89	=89
4r	.	[1d# [1f# [1b	_	1BM	.	voice	.	142.552	B:maj/5
4B 4d# 4f#	Sweet,	.	.	.	.	.	.	.	.
4B 4d# 4f#	sweet,	.	.	.	.	.	.	.	.
8r	.	.	.	.	.	.	.	.	.
8B 8d# 8f#	sweet	.	.	.	.	.	.	.	.
=90	=90	=90	=90	=90	=90	=90	=90	=90	=90
8r	.	2d#_ 2f#_ 2b_	_	1BM	.	voice	.	144.066	B:maj/5
8B 8d# 8f#	tal	.	.	.	.	.	.	.	.
8r	.	.	.	.	.	.	.	.	.
8B 8d# 8f#	kin'	.	.	.	.	.	.	.	.
4.B 4.d# 4.f#	guy	8d#] 8f#] 8b]	_	.	.	.	A	.	.
.	.	8r	.	.	.	.	.	.	.
.	.	4r	.	.	.	.	.	.	.
8r	.	.	.	.	.	.	.	.	.
r;	.	r;	.	1r;	.	r	.	145.58	N.C.
r;	.	r;	.	1r;	.	r	.	148.389	N.C.
*-	*-	*-	*-	*-	*-	*-	*-	*-	*-
!!!BillboardChartDate: 1966/05/07
!!!BillboardPeak: 10
!!!BillboardWeeksOnChart: 10
!!!COC: The Chiffons
!!!ENC: Nathaniel Condit-Schultz
!!!EST: Awating manual error checking and editing.
!!!OTL: Sweet Talkin' Guy
!!!RDF**chordsym: original McGill chord annotation + (implied pitch class set, with bass pitch in first position)
!!!RDF**harmony: **recip + pitch class of root + harmonic quality
!!!RDF**leadinstrument: original McGill primary instrumentation annotation
!!!RDF**phrase: newline = linebreak in original McGill transcription
!!!RDF**timestamp: McGill audio timestamp in seconds
!!!RDT: 2017/01/12/
!!!SampleActualRank: 86
!!!SampleID#: 0026
!!!SampleTargetRank: 88
